X: 204
T: Joe Cashmere's Mazurka
B: australian dance tunes
M:3/4
L:1/8
R: Mazurka
Q: 1/4=100
K:G
V:1 
D>G|+B2G2+ +B2G2+ (3dBG|+B2G2+ +B2G2+ (3dBG|+A2D2+ +A2D2+ (3cBA|+G2G,2+ +G2G,2+ D>G|!
+B2G2+ +B2G2+ (3dBG|+B2G2+ +B2G2+ (3dBG|+A2D2+ +A2D2+ (3AdA|G2 G2 B>d|!
e2 e>f g>e|d2 d2 G>B|d2 d>B A>d|B2 BA GB|!
e2 e>f  g>e|d2 d2 G>B|d>e d>c B>A| G4 D>G||
% abcbook-tune_id 62a07850526192f0729b9d5e


% abcbook-boost 0
% abcbook-tablature 
% abcbook-transpose 
% abcbook-lastupdated 1654683750317
% abcbook-soundfonts 
% abcbook-repeats 1


